app/assets/v2/images/vision/macro.svg

<?xml version="1.0" encoding="UTF-8"?>
<svg width="17px" height="17px" viewBox="0 0 17 17" version="1.1" xmlns="http://www.w3.org/2000/svg" xmlns:xlink="http://www.w3.org/1999/xlink">
    <!-- Generator: Sketch 50.2 (55047) - http://www.bohemiancoding.com/sketch -->
    <title>Macro</title>
    <desc>Created with Sketch.</desc>
    <defs>
        <polygon id="path-1" points="0 0 16.8190972 0 16.8190972 16.8191237 0 16.8191237"></polygon>
    </defs>
    <g id="Module-02-Templates" stroke="none" stroke-width="1" fill="none" fill-rule="evenodd">
        <g id="Gitcoin-Vision" transform="translate(-794.000000, -3224.000000)">
            <g id="Long-Term-Vision" transform="translate(-140.000000, 2841.000000)">
                <g id="2018" transform="translate(810.000000, 292.000000)">
                    <g id="Macro" transform="translate(124.000000, 91.000000)">
                        <mask id="mask-2" fill="white">
                            <use xlink:href="#path-1"></use>
                        </mask>
                        <g id="Clip-2"></g>
                        <path d="M11.973362,8.46438953 C11.9683295,8.47551399 11.9651511,8.48187082 11.9617078,8.48796279 C11.9579996,8.49484936 11.9537617,8.50173593 11.9495238,8.50835763 C11.9156207,8.55947717 11.8679445,8.59761817 11.8120573,8.61907249 L8.59364515,10.5022846 C8.48716818,10.5881019 8.33486903,10.5873073 8.22892179,10.5006954 L5.03196396,8.63205103 C4.90588675,8.5965587 4.81927488,8.48081135 4.82086409,8.34970164 C4.81927488,8.27500884 4.84629143,8.20243499 4.89661636,8.14707755 L8.14972624,2.77687705 C8.19607815,2.67543257 8.29672802,2.60974528 8.40823749,2.60789121 C8.52239564,2.606302 8.62675366,2.67225415 8.67495966,2.77581757 L11.9309831,8.15873175 C11.9683295,8.20322959 11.9911081,8.25779242 11.9966704,8.31553366 C11.9985244,8.34440428 11.9982596,8.35023138 11.9982596,8.35579361 C11.9958758,8.39764277 11.9876648,8.43207562 11.973362,8.46438953 Z M11.7188237,9.82342769 L8.66515954,14.0629063 C8.55444468,14.2615574 8.26838714,14.2604979 8.15873175,14.061582 L5.11142438,9.83587649 C5.09712151,9.81866007 5.08493758,9.79985443 5.07513746,9.77972446 C5.0706347,9.7701892 5.06745628,9.7635675 5.0648076,9.75668093 C5.06189405,9.74926463 5.05924537,9.74184832 5.05686156,9.73416714 C5.00150413,9.5511433 5.13261383,9.36705997 5.32172965,9.3593788 C5.3868872,9.35673012 5.45072041,9.37633036 5.50342916,9.41473623 L8.41247538,11.1149245 L11.3217865,9.41261728 C11.5802977,9.23436106 11.8978746,9.53737015 11.7320671,9.80409232 C11.7257103,9.81362757 11.722267,9.81866007 11.7188237,9.82342769 Z M0,8.40956183 C0,13.0489913 3.77013238,16.8193885 8.40956183,16.8193885 C13.0492561,16.8193885 16.8191237,13.0489913 16.8191237,8.40956183 C16.8191237,3.77013238 13.0492561,0 8.40956183,0 C3.77013238,0 0,3.77013238 0,8.40956183 Z" id="Fill-1" fill="#15EF91" mask="url(#mask-2)"></path>
                    </g>
                </g>
            </g>
        </g>
    </g>
</svg>

<svg width="17" height="17" xmlns="http://www.w3.org/2000/svg" xmlns:xlink="http://www.w3.org/1999/xlink"><defs><path id="a" d="M0 0h16.82v16.82H0z"/></defs><g fill="none" fill-rule="evenodd"><mask id="b" fill="#fff"><use xlink:href="#a"/></mask><path d="M11.973 8.464a.28.28 0 0 1-.023.044.288.288 0 0 1-.138.111l-3.218 1.883a.29.29 0 0 1-.365-.001L5.032 8.632a.29.29 0 0 1-.211-.282.292.292 0 0 1 .076-.203l3.253-5.37a.29.29 0 0 1 .525-.001l3.256 5.383c.037.044.06.099.066.157.002.028.001.034.001.04a.303.303 0 0 1-.025.108zm-.254 1.36l-3.054 4.239a.29.29 0 0 1-.506-.001L5.11 9.836a.279.279 0 0 1-.036-.056l-.01-.023a.29.29 0 0 1 .439-.342l2.908 1.7 2.91-1.702c.258-.179.576.124.41.391a.61.61 0 0 1-.013.02zM0 8.41c0 4.639 3.77 8.41 8.41 8.41 4.64 0 8.41-3.771 8.41-8.41C16.82 3.77 13.05 0 8.41 0 3.77 0 0 3.77 0 8.41z" fill="#15EF91" mask="url(#b)"/></g></svg>
